X: 3
T: Market Lass  v.1
P: piffero primo a0087
O: Joe Bausk's Tape
%R: march, reel
F: http://ancients.sudburymuster.org/mus/col/pdf/contraF.pdf
Z: 2019 John Chambers <jc:trillian.mit.edu>
M: 2/4
L: 1/16
K: G
|:\
G3A B2B2 | cBA2 G4 | F2G2 A2B2 | c4 B2A2 |\
G3A B2B2 | cBA2 G4 | F2G2 A2BA | G4 G4 ::\
B3c d2d2 | e2d2 c2Bc |
d2c2 B2AB | c2B2 A2D2 |\
B2c2 d2d2 | e2d2 c2Bc | d2c2 B2A2 | G4 G4 ::\
B6 c2 | d4 c4 | B4 A4 | G4 D4 |
B6 c2 | d4 c4 | B8 | A8 |\
B6 c2 | d4 c4 | B4 A4 | G4 A2B2 |\
c4 B4 | A4 G4 | F2D2 E2F2 | G8 :|


